!!!!SEGMENT: pl-kk--kk-i-1--013-005_borek-krzysztof--missa-te-deum-laudamus-agnus-dei.krn
!!!cenid: 15xx:700
!!!COM: Borek, Krzysztof
!!!COM-rismID: pe30020454
!!!CDT: 1520-1573
!!!CNT: Polish
!!!OPR: [Missa] Te Deum laudamus
!!!OTL: Agnus Dei
!!!OMV: 005
!!!PDT:
!!!AGN: Sacred; Mass
!!!SMS-siglum: PL-Kk
!!!SMS-shelfmark: Kk.I.1
!!!SMS-shelfwork: 013-005 M
!!!SMS-variant:
!!!SMS-altvar:
!!!NIFC-rismSourceID: 300257954
!!!NIFC-rismChildID: 300257967
!!!NIFC-islandoraID: pl-kk:1
!!!URL-pdf-islandora: https://repozytorium.nifc.pl/islandora/object/pl-kk%3A1/datastream/PDF/view
!!!URL-scan: https://polish.musicsources.pl/pl/lokalizacje/galeria/rekopisy/5736 @EN{Scan on Polish Music Sources Website} @PL{Skany w portalu Dziedzictwo Muzyki Polskiej w otwartym dostępie}
!!!ONB-nifc: UWAGA: Cantus (s. 75r-81v, skan 0077-0084), Altus (s. 73r-78v, skan 0265-0271), Tenor (s. 71r-76r, skan 0460-0465), Bassus (s. 70v-76r, skan 0632-0637). Części Mszy: 1. Kyrie, 2. Et in terra, 3. Patrem, 4. Sanctus, 5. Agnus Dei
!!!AIN: 1 alto 1 bass 1 soprn 1 tenor
!!!key: e:phr
**kern	**text	**mod-text	**kern	**text	**mod-text	**kern	**text	**mod-text	**kern	**text	**mod-text
*part4	*part4	*part4	*part3	*part3	*part3	*part2	*part2	*part2	*part1	*part1	*part1
*staff4	*staff4	*staff4	*staff3	*staff3	*staff3	*staff2	*staff2	*staff2	*staff1	*staff1	*staff1
*I"BASSVS	*	*	*I"TENOR	*	*	*I"ALTVS	*	*	*I"CANTVS	*	*
*mI"Basso	*	*	*mI"Tenore II	*	*	*mI"Tenore I	*	*	*mI"Alto	*	*
*I'B	*	*	*I'T	*	*	*I'A	*	*	*I'C	*	*
*	*	*	*mI'T 2	*	*	*mI'T 1	*	*	*mI'A	*	*
*Ibass	*	*	*Itenor	*	*	*Ialto	*	*	*Isoprn	*	*
*	*	*	*	*	*	*Itenor	*	*	*mIalto	*	*
*ICvox	*	*	*ICvox	*	*	*ICvox	*	*	*ICvox	*	*
!LO:MO:mod=*null:null	!	!	!LO:MO:mod=*null:null	!	!	!LO:MO:mod=*null:null	!	!	!LO:MO:mod=*null:null	!	!
*stria6	*	*	*stria6	*	*	*stria6	*	*	*stria6	*	*
*clefF4	*	*	*clefC4	*	*	*clefC3	*	*	*clefC3	*	*
*	*	*	*mclefGv2	*	*	*mclefGv2	*	*	*mclefG2	*	*
*k[]	*	*	*k[]	*	*	*k[]	*	*	*k[]	*	*
*e:phr	*	*	*e:phr	*	*	*e:phr	*	*	*e:phr	*	*
*M2/1	*	*	*M2/1	*	*	*M2/1	*	*	*M2/1	*	*
*met(C|)	*	*	*met(C|)	*	*	*met(C|)	*	*	*met(C|)	*	*
*mmet(c|)	*	*	*mmet(c|)	*	*	*mmet(c|)	*	*	*mmet(c|)	*	*
=1-	=1-	=1-	=1-	=1-	=1-	=1-	=1-	=1-	=1-	=1-	=1-
*xywh-#637:5857,798,4151,879	*	*	*xywh-#465:5969,1368,4202,965	*	*	*xywh-#271:1548,1583,4001,831	*	*	*xywh-#84:1621,778,4040,872	*	*
1AA/	A-	A-	0r	.	.	1.c\	A-	A-	1.e\	A-	A-
2E\	-gnus	-gnus	.	.	.	.	.	.	.	.	.
2F\	De-	De-	.	.	.	4B/	-gnus	-gnus	2d\	-gnus	-gnus
.	.	.	.	.	.	4A/	.	.	.	.	.
=2-	=2-	=2-	=2-	=2-	=2-	=2-	=2-	=2-	=2-	=2-	=2-
1E\	-i	-i	1r	.	.	1B/	De-	De-	1e\	.	De-
*	*ij	*	*	*	*	*	*	*	*	*	*
2.AA/	A-	A-	1A\	Mi-	Mi-	1A/	-i	-i	2.c/	De-	.
4BB/	.	.	.	.	.	.	.	.	4d\	-i	.
=3-	=3-	=3-	=3-	=3-	=3-	=3-	=3-	=3-	=3-	=3-	=3-
2C/	-gnus	-gnus	1A\	-ſe-	-se-	1r	.	.	2e\	.	.
1D\	De-	De-	.	.	.	.	.	.	2f\	.	.
.	.	.	1A\	-re-	-re-	2r	.	.	2d\	.	.
2C/	.	.	.	.	.	2A/	qui	qui	2e\	.	.
=4-	=4-	=4-	=4-	=4-	=4-	=4-	=4-	=4-	=4-	=4-	=4-
1D\	-i	-i	1A\	-re	-re	2.d\	tol-	tol-	2.f\	.	.
*	*Xij	*	*	*	*	*	*	*	*	*	*
.	.	.	.	.	.	4c/	-lis	.	4e\	.	.
0r	.	.	1G/	n(os-	nos-	2B/	.	-lis	2d\	.	.
.	.	.	.	.	.	2c/	p(e)c-	pec-	2e\	.	-i
=5-	=5-	=5-	=5-	=5-	=5-	=5-	=5-	=5-	=5-	=5-	=5-
.	.	.	1B\	-t)ri	-tri	2d\	-(ca)-	-ca-	1r	.	.
.	.	.	.	.	.	2e\	-ta	-ta	.	.	.
2r	.	.	1.c\	Do-	Do-	2f\	m(un)-	mun-	2A/	qui	qui
*	*	*	*	*	*	*	*	*	*custos:c	*	*
1AA/	qui	qui	.	.	.	2e\	-di	-di	2e\	tol-	tol-
!	!	!	!	!	!	!	!	!	!LO:LB:g=original	!	!
=6-	=6-	=6-	=6-	=6-	=6-	=6-	=6-	=6-	=6-	=6-	=6-
*	*	*	*	*	*	*	*	*	*xywh-#84:1602,1572,4045,770	*	*
.	.	.	.	.	.	1r	.	.	2c/	-lis	-lis
2D/	tol-	tol-	2A/	-mi-	-mi-	.	.	.	2d\	pec-	pec-
2C/	-lis	-lis	1A\	-ne	-ne	2r	.	.	2e\	-ca-	-ca-
*custos:E	*	*	*	*	*	*custos:e	*	*	*	*	*
2D/	pec-	pec-	.	.	.	2f\	pec-	pec-	4d/	.	.
.	.	.	.	.	.	.	.	.	4c/	.	.
!LO:LB:g=original	!	!	!	!	!	!LO:LB:g=original	!	!	!	!	!
=7-	=7-	=7-	=7-	=7-	=7-	=7-	=7-	=7-	=7-	=7-	=7-
*xywh-#637:5836,1603,4198,804	*	*	*	*	*	*xywh-#271:1520,2385,4040,763	*	*	*	*	*
2E\	-ca-	-ca-	2r	.	.	2e\	-ca-	-ca-	2B/	-ta	.
2F\	-ta	-ta	1A\	mi-	mi-	2d\	-ta	-ta	2A/	.	-ta
1E\	m(un)-	mun-	.	.	.	1e\	m(un)-	mun-	1B/	mun-	mun-
.	.	.	2G/	-ſe-	-se-	.	.	.	.	.	.
=8-	=8-	=8-	=8-	=8-	=8-	=8-	=8-	=8-	=8-	=8-	=8-
2AA/	-di	-di	2A/	-re-	-re-	1e\	-di	-di	2c/	-di	.
*	*	*	*custos:G	*	*	*	*	*	*	*	*
1E\	mi-	mi-	2B\	-re	-re	.	.	.	4B/	.	.
.	.	.	.	.	.	.	.	.	4A/	.	.
*	*	*	*xywh-#465:5867,2361,4202,778	*	*	*	*	*	*	*	*
!	!	!	!LO:LB:g=original	!	!	!	!	!	!	!	!
.	.	.	1G/	noſ-	nos-	2r	.	.	2B/	.	.
2C/	-ſe-	-se-	.	.	.	2e\	mi-	mi-	2c/	.	.
=9-	=9-	=9-	=9-	=9-	=9-	=9-	=9-	=9-	=9-	=9-	=9-
2F\	-re-	-re-	2A/	-tri	-tri	2c/	-ſe-	-se-	1A/	.	-di
*	*	*	*	*ij	*	*	*	*	*	*	*
2D/	-re	-re	2d\	mi-	mi-	2f\	-re-	-re-	.	.	.
1E\	no-	no-	2c\	-ſe-	-se-	2.e\	-re	-re	1r	.	.
.	.	.	2B\	-re-	-re-	.	.	.	.	.	.
.	.	.	.	.	.	4d\	.	.	.	.	.
=10-	=10-	=10-	=10-	=10-	=10-	=10-	=10-	=10-	=10-	=10-	=10-
2F\	.	.	2A/	-re	-re	4c\	.	.	2r	.	.
.	.	.	.	.	.	4d\	.	.	.	.	.
2E\	-bis	-bis	2.G/	noſ-	nos-	2e\	no-	no-	2e\	mi-	mi-
2r	.	.	.	.	.	1B/	-bis	-bis	2d\	-ſe-	-se-
.	.	.	4A\	.	.	.	.	.	.	.	.
*	*ij	*	*	*	*	*	*	*	*	*	*
1E\	mi-	mi-	2B\	-tri	-tri	.	.	.	1e\	-re-	-re-
=11-	=11-	=11-	=11-	=11-	=11-	=11-	=11-	=11-	=11-	=11-	=11-
.	.	.	2c\	Do-	Do-	2r	.	.	.	.	.
*	*	*	*	*	*	*	*ij	*	*	*	*
2D/	-ſe-	-se-	2d\	-mi-	-mi-	1A/	mi-	mi-	2f#X\	-re	-re
1E\	-re	-re	1B\	-ne	-ne	.	.	.	2e\	no-	no-
*	*	*	*	*Xij	*	*	*	*	*	*	*
*	*	*	*	*	*	*	*	*	*custos:d	*	*
!	!	!	!	!LO:LB:g=original	!LO:LB:g=original	!	!	!	!	!	!
.	.	.	.	.	.	2G/	-ſe-	-se-	2e\	-bis	-bis
!	!	!	!	!	!	!	!	!	!LO:LB:g=original	!	!
=12-	=12-	=12-	=12-	=12-	=12-	=12-	=12-	=12-	=12-	=12-	=12-
*	*	*	*	*	*	*	*	*	*xywh-#84:1592,2391,4108,770	*	*
2F#X\	re	re	0r	.	.	2A/	-re-	-re-	2r	.	.
*	*	*	*	*	*	*	*	*	*	*ij	*
4E/	no-	no-	.	.	.	2B/	-re	-re	1d\	mi-	mi-
*custos:E	*	*	*	*	*	*	*	*	*	*	*
4D/	.	.	.	.	.	.	.	.	.	.	.
*xywh-#637:5863,2401,4117,770	*	*	*	*	*	*	*	*	*	*	*
!LO:LB:g=original	!	!	!	!	!	!	!	!	!	!	!
1E\	.	.	.	.	.	1G/	no-	no-	.	.	.
.	.	.	.	.	.	.	.	.	2c/	-ſe-	-se-
=13-	=13-	=13-	=13-	=13-	=13-	=13-	=13-	=13-	=13-	=13-	=13-
*	*	*	*	*	*	*custos:A	*	*	*	*	*
2D/	-bis	-bis	2r	.	.	1A/	-bis	-bis	2.d\	-re-	-re-
*	*Xij	*	*	*	*	*	*Xij	*	*	*	*
1D\	Mi-	mi-	1A\	mi-	mi-	.	.	.	.	.	.
.	.	.	.	.	.	.	.	.	4e\	.	.
.	.	.	.	.	.	0r	.	.	2f\	.	.
2D/	-ſe-	-se-	2F/	-ſe-	-se-	.	.	.	2.f\	-re	-re
=14-	=14-	=14-	=14-	=14-	=14-	=14-	=14-	=14-	=14-	=14-	=14-
2C/	-re-	-re-	2G/	-re-	-re-	.	.	.	.	.	.
.	.	.	.	.	.	.	.	.	4e\	.	.
2AA/	-re	-re	2A/	-re	-re	.	.	.	1e\	no-	no-
*	*	*	*	*	*	*xywh-#271:1510,3192,4117,725	*	*	*	*	*
!	!	!	!	!	!	!LO:LB:g=original	!	!	!	!	!
1D\	no-	no-	1F/	no-	no-	1A/	mi-	mi-	.	.	.
.	.	.	.	.	.	.	.	.	2d\	.	.
=15-	=15-	=15-	=15-	=15-	=15-	=15-	=15-	=15-	=15-	=15-	=15-
2AA/	-bis	-bis	[0El	-bis	-bis	1.c\	-ſe	-se	[0el	-bis	-bis
*	*ij	*	*	*	*	*	*	*	*	*Xij	*
1AA/	mi-	mi-	.	.	.	.	.	.	.	.	.
2GG/	-ſe-	-se-	.	.	.	2B/	.	.	.	.	.
=16-	=16-	=16-	=16-	=16-	=16-	=16-	=16-	=16-	=16-	=16-	=16-
2AA/	-re-	-re-	0E_	.	.	2A/	re-	re-	0e_	.	.
2E\	-re	-re	.	.	.	2G/	-re	-re	.	.	.
0AA/	no-	no-	.	.	.	0c\	no-	no-	.	.	.
=17-	=17-	=17-	=17-	=17-	=17-	=17-	=17-	=17-	=17-	=17-	=17-
!LO:TX:t=P:problem=adnotacja skryptora NR lub MR  i data 1513, choć zważywszy na czas powstania rękopisu to data niemożliwa - w 1513 jeszcze nie było rorantystów ani innego zespołu, który by na Wawelu mógł spiewać polifonię, a Borka jeszcze chyba w ogóle nie było na świecie. Tajemnica. Na 1613 to raczej nie wygląda, a 1543 też niewiele zmienia, bo Borek na Wawelu się zjawił dopiero jakoś 1547/48. 	!	!	!	!	!	!LO:TX:t=P:problem=adnotacja skryptora NR lub MR  i data 1513, choć zważywszy na czas powstania rękopisu to data niemożliwa - w 1513 jeszcze nie było rorantystów ani innego zespołu, który by na Wawelu mógł spiewać polifonię, a Borka jeszcze chyba w ogóle nie było na świecie. Tajemnica. Na 1613 to raczej nie wygląda, a 1543 też niewiele zmienia, bo Borek na Wawelu się zjawił dopiero jakoś 1547/48. 	!	!	!LO:TX:t=P:problem=adnotacja skryptora NR lub MR  i data 1513, choć zważywszy na czas powstania rękopisu to data niemożliwa - w 1513 jeszcze nie było rorantystów ani innego zespołu, który by na Wawelu mógł spiewać polifonię, a Borka jeszcze chyba w ogóle nie było na świecie. Tajemnica. Na 1613 to raczej nie wygląda, a 1543 też niewiele zmienia, bo Borek na Wawelu się zjawił dopiero jakoś 1547/48.	!	!
.	.	.	0E];	.	.	.	.	.	0e];	.	.
1El;	-bis	-bis	.	.	.	1Bl;	-bis	-bis	.	.	.
*	*Xij	*	*	*	*	*	*	*	*	*	*
==	==	==	==	==	==	==	==	==	==	==	==
*-	*-	*-	*-	*-	*-	*-	*-	*-	*-	*-	*-
!!!system-decoration: [(s1,s2,s3,s4)]
!!LO:MO:ori
!!!RDF**kern: l = terminal long
!!LO:MO:end
!!!filter-modern: sic -sq | autostem -r | tie -s | shed -e "s/-//B" | shed -e "s/TX(.*):t=P:/tx$1:t=P:/LG" | shed -e "s/^custos:/Xcustos:/I" | humtr -p | modori -m
!!!ENC: Mateusz Solarz
!!!END: 2022-02-17
!!!ENC: Leszek Kubiak
!!!END: 2022-02-23
!!!ENC-modern: Marta Lawrence
!!!END-modern: 2022-07-17
!!!YEC: Copyright 2022 Narodowy Instytut Fryderyka Chopina (https://polishscores.org)
!!!YEM: License CC-BY-4.0 (https://creativecommons.org/licenses/by/4.0)
!!!IIIF: https://repozytorium.nifc.pl/islandora/object/pl-kk%3A1/datastream/IIIF/view
!!!ENC-iiif: Elżbieta Cabała
!!!END-iiif: 2022-09-02
